!!!SOCIAL_FUNCTION:	dream songs
!!!REG: Great Lakes
!!!PDT:	1913
!!!OTL: No_142_White-haired_Raven.krn
**kern	**kern
*staff2	*staff1
*clefF4	*clefF4
*k[f#]	*k[f#]
*M7/4	*M7/4
8r	8d\
=1	=1
8GG/L	4d\
8GG/	.
8GG/	4d\
8GG/	.
8GG/	4d\
8GG/	.
8GG/	4d\
8GG/	.
8GG/	(16d\LK
.	8.B\J)
8GG/	.
8GG/	4B\
8GG/	.
8GG/	8.B\L
8GG/J	.
.	16B\Jk
=2||	=2||
*M3/4	*M3/4
2.r	4d\
.	4.d\
.	8B\
=3||	=3||
*M5/4	*M5/4
1r	4B\
.	[2B\
.	4.B\]
4r	.
.	8B\
=4||	=4||
*M7/4	*M7/4
1..r	4B\
.	4B\
.	4B\
.	4A#\
.	(16A#\LK
.	8.G\J)
.	4G\
.	8.B\L
.	16B\Jk
=5||	=5||
*M3/4	*M3/4
2.r	4B\
.	4.B\
.	8A#\
=6||	=6||
*M5/4	*M5/4
1r	(16A#\LK
.	8.G\J)
.	[2G\
.	4.G\]
4r	.
.	8G\
=7||	=7||
*M7/4	*M7/4
1..r	4G\
.	4G\
.	4G\
.	4G\
.	(16G\LK
.	8.E\J)
.	4E\
.	8.G\L
.	16G\Jk
=8||	=8||
*M3/4	*M3/4
2.r	4G\
.	4.G\
.	8E\
=9||	=9||
*M5/4	*M5/4
1r	4D\
.	[2D\
.	4.D\]
4r	.
.	8D\
=10||	=10||
*M7/4	*M7/4
1..r	4D\
.	4D\
.	4D\
.	4D\
.	(16D/LK
.	8.BB/J)
.	4BB/
.	8.D\L
.	16D\Jk
=11||	=11||
*M3/4	*M3/4
2.r	4D\
.	4.D\
.	8BB/
=12||	=12||
*M5/4	*M5/4
1r	4BB/
.	[2BB/
.	2BB/]
4r	.
==	==
*-	*-
